X: 5
T:Armstrongs
% Nottingham Music Database
S:Kevin Briggs, via EF
Y:AB
M:6/8
K:A
P:A
e|"A"eaf e2c|"E7"BAB "A"c3|"A"E2A "E7/b"BAB|"A/c+"cBc "D"dcd|
"A"eaf e2c|"E7"BAB "A"c3|"E7"E2E EFG|"A"A3 A2:|
P:B
e|"A"ecA Acd|"A"ecA "E7"B2A|"A"ecA cAc|"Bm"B2B "E7"dcd|
"A"ecA Acd|"A"ecA Acd|"E7"e2e efg|"A"aec A2:|


